packages/core/src/svgs/four.svg

<svg width="24" height="24" viewBox="0 0 24 24" fill="none" xmlns="http://www.w3.org/2000/svg">
<g clip-path="url(#clip0_31_10453)">
<path d="M0 0H24V24H0V0Z" fill="url(#paint0_linear_31_10453)"/>
<path d="M18.4286 5.57129L5.57141 7.46129V18.4284L18.4286 17.2927V5.57129Z" fill="url(#paint1_linear_31_10453)"/>
<path fill-rule="evenodd" clip-rule="evenodd" d="M13.2857 8.14307V11.3574L15 10.9288V12.2145L13.2857 12.6431V15.4288L12 15.8574V12.8574L8.57141 13.2859V12.0002L11.5714 8.14307H13.2857ZM12 11.5716L10.2857 12.0002V11.5716L11.5714 9.64307L12 9.42878V11.5716Z" fill="#FEF5EC"/>
</g>
<defs>
<linearGradient id="paint0_linear_31_10453" x1="4.46571" y1="4.16143" x2="29.2071" y2="32.58" gradientUnits="userSpaceOnUse">
<stop stop-color="#1A1E21"/>
<stop offset="1" stop-color="#06060A"/>
</linearGradient>
<linearGradient id="paint1_linear_31_10453" x1="17.9871" y1="5.94843" x2="8.1857" y2="19.7784" gradientUnits="userSpaceOnUse">
<stop stop-color="#92988A"/>
<stop offset="1" stop-color="#3C554F"/>
</linearGradient>
<clipPath id="clip0_31_10453">
<rect width="24" height="24" fill="white"/>
</clipPath>
</defs>
</svg>

<svg xmlns="http://www.w3.org/2000/svg" width="24" height="24" fill="none" viewBox="0 0 24 24"><g clip-path="url(#a)"><path fill="url(#b)" d="M0 0h24v24H0z"/><path fill="url(#c)" d="M18.429 5.571 5.57 7.461v10.967l12.858-1.135z"/><path fill="#FEF5EC" fill-rule="evenodd" d="M13.286 8.143v3.214L15 10.93v1.285l-1.714.43v2.785L12 15.857v-3l-3.429.429V12l3-3.857zM12 11.572 10.286 12v-.428l1.285-1.929L12 9.43z" clip-rule="evenodd"/></g><defs><linearGradient id="b" x1="4.466" x2="29.207" y1="4.161" y2="32.58" gradientUnits="userSpaceOnUse"><stop stop-color="#1A1E21"/><stop offset="1" stop-color="#06060A"/></linearGradient><linearGradient id="c" x1="17.987" x2="8.186" y1="5.948" y2="19.778" gradientUnits="userSpaceOnUse"><stop stop-color="#92988A"/><stop offset="1" stop-color="#3C554F"/></linearGradient><clipPath id="a"><path fill="#fff" d="M0 0h24v24H0z"/></clipPath></defs></svg>
